X:1
T: Garscobe House
C:"A Lady"
R:Strathspey
Q: 128
K:Bb
M:4/4
L:1/16
|:B2|FB3 DB3 FB,3 B,2F2|EG3 F3D E2C2 C3B|FB3 D3B F2B,2 B,3F|EG3 F3E D2B,2 B,3B|
FB3 DB3 FB,3 B,2F2|EG3 F3D E2C2 C2D2|B,3D F2G2 B3F G2g2|fB3 f3e d2B2 B2de|
fB3 f3d d2c2 c2de|fB3 f3d fB3 b3g|fB3 f3d d2c2 c2de|fe3 d3c d2B2 B2de|
fB3 f3d d2c2 c2de|fB3 f3d fB3 b3g|fB3 f3d d2c2 c2de|fedc B3A B2B,2 B,2:|
